flaticon/constructions/door-3.svg

<svg xmlns="http://www.w3.org/2000/svg" width="32" height="32" viewBox="0 0 24 24">
    <path d="M 23.585938 0.414062 L 0.414062 0.414062 C 0.164062 0.414062 0 0.578125 0 0.828125 L 0 23.171875 C 0 23.421875 0.164062 23.585938 0.414062 23.585938 L 23.585938 23.585938 C 23.835938 23.585938 24 23.421875 24 23.171875 L 24 0.828125 C 24 0.578125 23.835938 0.414062 23.585938 0.414062 Z M 12 14.484375 C 11.542969 14.484375 11.171875 14.109375 11.171875 13.65625 C 11.171875 13.199219 11.542969 12.828125 12 12.828125 C 12.457031 12.828125 12.828125 13.199219 12.828125 13.65625 C 12.828125 14.109375 12.457031 14.484375 12 14.484375 Z M 11.585938 12.042969 C 11.382812 12.101562 11.191406 12.199219 11.023438 12.320312 C 11.015625 12.328125 11.007812 12.335938 11 12.339844 C 10.988281 12.347656 10.980469 12.355469 10.972656 12.359375 C 10.960938 12.371094 10.949219 12.378906 10.9375 12.390625 C 10.933594 12.390625 10.929688 12.394531 10.925781 12.398438 C 10.886719 12.433594 10.84375 12.472656 10.808594 12.511719 C 10.800781 12.519531 10.792969 12.527344 10.785156 12.535156 C 10.777344 12.542969 10.769531 12.550781 10.765625 12.558594 C 10.753906 12.570312 10.742188 12.585938 10.730469 12.597656 C 10.726562 12.601562 10.722656 12.605469 10.71875 12.609375 C 10.519531 12.851562 10.390625 13.148438 10.355469 13.480469 C 10.355469 13.484375 10.351562 13.488281 10.351562 13.492188 C 10.351562 13.511719 10.347656 13.535156 10.347656 13.558594 C 10.347656 13.5625 10.347656 13.570312 10.347656 13.574219 C 10.34375 13.601562 10.34375 13.628906 10.34375 13.65625 C 10.34375 13.683594 10.34375 13.710938 10.347656 13.738281 C 10.347656 13.742188 10.347656 13.746094 10.347656 13.75 C 10.347656 13.773438 10.351562 13.796875 10.351562 13.820312 C 10.351562 13.824219 10.351562 13.824219 10.355469 13.828125 C 10.425781 14.535156 10.933594 15.117188 11.585938 15.269531 L 11.585938 22.757812 L 2.484375 22.757812 L 2.484375 2.898438 L 11.585938 2.898438 Z M 12.414062 22.757812 L 12.414062 15.269531 C 12.617188 15.207031 12.808594 15.113281 12.976562 14.988281 C 12.984375 14.980469 12.992188 14.976562 13 14.96875 C 13.011719 14.964844 13.019531 14.957031 13.027344 14.949219 C 13.039062 14.941406 13.050781 14.929688 13.0625 14.921875 C 13.066406 14.917969 13.070312 14.914062 13.074219 14.910156 C 13.113281 14.875 13.15625 14.839844 13.191406 14.800781 C 13.199219 14.792969 13.207031 14.78125 13.214844 14.773438 C 13.222656 14.765625 13.230469 14.761719 13.234375 14.753906 C 13.246094 14.738281 13.257812 14.726562 13.269531 14.710938 C 13.273438 14.707031 13.277344 14.703125 13.28125 14.703125 C 13.480469 14.460938 13.609375 14.164062 13.644531 13.828125 C 13.644531 13.828125 13.648438 13.824219 13.648438 13.820312 C 13.648438 13.796875 13.652344 13.773438 13.652344 13.753906 C 13.652344 13.746094 13.652344 13.742188 13.652344 13.734375 C 13.65625 13.710938 13.65625 13.683594 13.65625 13.65625 C 13.65625 13.628906 13.65625 13.601562 13.652344 13.574219 C 13.652344 13.570312 13.652344 13.5625 13.652344 13.558594 C 13.652344 13.535156 13.648438 13.511719 13.648438 13.488281 C 13.648438 13.488281 13.644531 13.484375 13.644531 13.484375 C 13.574219 12.773438 13.066406 12.195312 12.414062 12.042969 L 12.414062 2.898438 L 21.515625 2.898438 L 21.515625 22.757812 Z M 23.171875 22.757812 L 22.34375 22.757812 L 22.34375 2.484375 C 22.34375 2.234375 22.179688 2.070312 21.929688 2.070312 L 2.070312 2.070312 C 1.820312 2.070312 1.65625 2.234375 1.65625 2.484375 L 1.65625 22.757812 L 0.828125 22.757812 L 0.828125 1.242188 L 23.171875 1.242188 Z M 23.171875 22.757812"/>
    <path d="M4.550781 12.828125L9.515625 12.828125C9.765625 12.828125 9.929688 12.660156 9.929688 12.414062L9.929688 4.136719C9.929688 3.890625 9.765625 3.722656 9.515625 3.722656L4.550781 3.722656C4.304688 3.722656 4.136719 3.890625 4.136719 4.136719L4.136719 12.414062C4.136719 12.660156 4.304688 12.828125 4.550781 12.828125zM4.964844 4.550781L9.101562 4.550781 9.101562 12 4.964844 12zM4.550781 21.929688L9.515625 21.929688C9.765625 21.929688 9.929688 21.765625 9.929688 21.515625L9.929688 14.898438C9.929688 14.648438 9.765625 14.484375 9.515625 14.484375L4.550781 14.484375C4.304688 14.484375 4.136719 14.648438 4.136719 14.898438L4.136719 21.515625C4.136719 21.765625 4.304688 21.929688 4.550781 21.929688zM4.964844 15.308594L9.101562 15.308594 9.101562 21.101562 4.964844 21.101562zM19.449219 3.722656L14.484375 3.722656C14.234375 3.722656 14.070312 3.890625 14.070312 4.136719L14.070312 12.414062C14.070312 12.660156 14.234375 12.828125 14.484375 12.828125L19.449219 12.828125C19.695312 12.828125 19.863281 12.660156 19.863281 12.414062L19.863281 4.136719C19.863281 3.890625 19.695312 3.722656 19.449219 3.722656zM19.035156 12L14.898438 12 14.898438 4.550781 19.035156 4.550781zM19.449219 14.484375L14.484375 14.484375C14.234375 14.484375 14.070312 14.648438 14.070312 14.898438L14.070312 21.515625C14.070312 21.765625 14.234375 21.929688 14.484375 21.929688L19.449219 21.929688C19.695312 21.929688 19.863281 21.765625 19.863281 21.515625L19.863281 14.898438C19.863281 14.648438 19.695312 14.484375 19.449219 14.484375zM19.035156 21.101562L14.898438 21.101562 14.898438 15.308594 19.035156 15.308594zM19.035156 21.101562"/>
    <path d="M7.574219 5.503906L5.917969 7.160156C5.75 7.324219 5.75 7.574219 5.917969 7.738281 6 7.820312 6.082031 7.863281 6.207031 7.863281 6.332031 7.863281 6.414062 7.820312 6.496094 7.738281L8.152344 6.082031C8.316406 5.917969 8.316406 5.667969 8.152344 5.503906 7.984375 5.339844 7.738281 5.339844 7.574219 5.503906zM7.574219 8.8125L5.917969 10.46875C5.75 10.632812 5.75 10.882812 5.917969 11.046875 6 11.132812 6.082031 11.171875 6.207031 11.171875 6.332031 11.171875 6.414062 11.132812 6.496094 11.046875L8.152344 9.394531C8.316406 9.226562 8.316406 8.980469 8.152344 8.8125 7.984375 8.648438 7.738281 8.648438 7.574219 8.8125zM16.136719 7.863281C16.261719 7.863281 16.34375 7.820312 16.425781 7.738281L18.082031 6.082031C18.25 5.917969 18.25 5.667969 18.082031 5.503906 17.917969 5.339844 17.667969 5.339844 17.503906 5.503906L15.847656 7.160156C15.683594 7.324219 15.683594 7.574219 15.847656 7.738281 15.929688 7.820312 16.015625 7.863281 16.136719 7.863281zM16.136719 11.171875C16.261719 11.171875 16.34375 11.132812 16.425781 11.046875L18.082031 9.394531C18.25 9.226562 18.25 8.980469 18.082031 8.8125 17.917969 8.648438 17.667969 8.648438 17.503906 8.8125L15.847656 10.46875C15.683594 10.632812 15.683594 10.882812 15.847656 11.046875 15.929688 11.132812 16.015625 11.171875 16.136719 11.171875zM7.574219 15.847656L5.917969 17.503906C5.75 17.667969 5.75 17.917969 5.917969 18.082031 6 18.164062 6.082031 18.207031 6.207031 18.207031 6.332031 18.207031 6.414062 18.164062 6.496094 18.082031L8.152344 16.425781C8.316406 16.261719 8.316406 16.015625 8.152344 15.847656 7.984375 15.683594 7.738281 15.683594 7.574219 15.847656zM7.574219 18.332031L5.917969 19.984375C5.75 20.152344 5.75 20.398438 5.917969 20.566406 6 20.648438 6.082031 20.691406 6.207031 20.691406 6.332031 20.691406 6.414062 20.648438 6.496094 20.566406L8.152344 18.910156C8.316406 18.746094 8.316406 18.496094 8.152344 18.332031 7.984375 18.164062 7.738281 18.164062 7.574219 18.332031zM16.136719 18.207031C16.261719 18.207031 16.34375 18.164062 16.425781 18.082031L18.082031 16.425781C18.25 16.261719 18.25 16.015625 18.082031 15.847656 17.917969 15.683594 17.667969 15.683594 17.503906 15.847656L15.847656 17.503906C15.683594 17.667969 15.683594 17.917969 15.847656 18.082031 15.929688 18.164062 16.015625 18.207031 16.136719 18.207031zM16.136719 20.691406C16.261719 20.691406 16.34375 20.648438 16.425781 20.566406L18.082031 18.910156C18.25 18.746094 18.25 18.496094 18.082031 18.332031 17.917969 18.164062 17.667969 18.164062 17.503906 18.332031L15.847656 19.984375C15.683594 20.152344 15.683594 20.398438 15.847656 20.566406 15.929688 20.648438 16.015625 20.691406 16.136719 20.691406zM16.136719 20.691406"/>
</svg>

<svg xmlns="http://www.w3.org/2000/svg" width="32" height="32" viewBox="0 0 24 24">
    <path d="M23.586.414H.414C.164.414 0 .578 0 .828v22.344c0 .25.164.414.414.414h23.172c.25 0 .414-.164.414-.414V.828c0-.25-.164-.414-.414-.414zM12 14.484a.829.829 0 1 1 0-1.655.829.829 0 0 1 0 1.655zm-.414-2.441a1.844 1.844 0 0 0-.563.277c-.007.008-.015.016-.023.02l-.027.02-.036.03c-.003 0-.007.005-.011.008-.04.036-.082.075-.117.114l-.024.023c-.008.008-.015.016-.02.024l-.035.039-.011.011c-.2.243-.328.54-.364.871l-.003.012c0 .02-.004.043-.004.067v.015c-.004.028-.004.055-.004.082 0 .028 0 .055.004.082v.012c0 .023.004.047.004.07 0 .004 0 .004.003.008.07.707.579 1.29 1.23 1.442v7.488h-9.1V2.898h9.1zm.828 10.715V15.27c.203-.063.395-.157.563-.282.007-.008.015-.011.023-.02.012-.003.02-.011.027-.019.012-.008.024-.02.036-.027l.011-.012c.04-.035.082-.07.117-.11.008-.007.016-.019.024-.027.008-.007.015-.011.02-.02.011-.015.023-.026.035-.042.003-.004.007-.008.011-.008.2-.242.328-.539.364-.875 0 0 .003-.004.003-.008 0-.023.004-.047.004-.066v-.02c.004-.023.004-.05.004-.078 0-.027 0-.054-.004-.082v-.015c0-.024-.004-.047-.004-.07l-.003-.005c-.07-.71-.579-1.289-1.23-1.441V2.898h9.1v19.86zm10.758 0h-.828V2.484c0-.25-.164-.414-.414-.414H2.07c-.25 0-.414.164-.414.414v20.274H.828V1.242h22.344zm0 0"/>
    <path d="M4.55 12.828h4.966c.25 0 .414-.168.414-.414V4.137c0-.246-.164-.414-.414-.414H4.55a.394.394 0 0 0-.414.414v8.277c0 .246.168.414.414.414zm.415-8.277h4.137V12H4.965zm0 0M4.55 21.93h4.966c.25 0 .414-.164.414-.414v-6.618c0-.25-.164-.414-.414-.414H4.55c-.246 0-.414.164-.414.414v6.618c0 .25.168.414.414.414zm.415-6.621h4.137v5.793H4.965zm0 0M19.45 3.723h-4.966c-.25 0-.414.168-.414.414v8.277c0 .246.164.414.414.414h4.965a.394.394 0 0 0 .414-.414V4.137a.394.394 0 0 0-.414-.414zM19.034 12h-4.137V4.55h4.137zm0 0M19.45 14.484h-4.966c-.25 0-.414.164-.414.414v6.618c0 .25.164.414.414.414h4.965c.246 0 .414-.164.414-.414v-6.618c0-.25-.168-.414-.414-.414zm-.415 6.618h-4.137v-5.793h4.137zm0 0"/>
    <path d="M7.574 5.504L5.918 7.16a.395.395 0 0 0 0 .578.375.375 0 0 0 .289.125.375.375 0 0 0 .29-.125l1.655-1.656a.401.401 0 0 0 0-.578.401.401 0 0 0-.578 0zm0 0M7.574 8.813l-1.656 1.656a.395.395 0 0 0 0 .578.363.363 0 0 0 .289.125c.125 0 .207-.04.29-.125l1.655-1.652a.406.406 0 0 0 0-.582.401.401 0 0 0-.578 0zm0 0M16.137 7.863a.375.375 0 0 0 .289-.125l1.656-1.656a.395.395 0 0 0 0-.578.401.401 0 0 0-.578 0L15.848 7.16a.401.401 0 0 0 0 .578.381.381 0 0 0 .289.125zm0 0M16.137 11.172c.125 0 .207-.04.289-.125l1.656-1.652a.4.4 0 0 0 0-.582.401.401 0 0 0-.578 0l-1.656 1.656a.401.401 0 0 0 0 .578.368.368 0 0 0 .289.125zm0 0M7.574 15.848l-1.656 1.656a.395.395 0 0 0 0 .578.375.375 0 0 0 .289.125.375.375 0 0 0 .29-.125l1.655-1.656a.401.401 0 0 0 0-.578.401.401 0 0 0-.578 0zm0 0M7.574 18.332l-1.656 1.652a.4.4 0 0 0 0 .582.375.375 0 0 0 .289.125.375.375 0 0 0 .29-.125l1.655-1.656a.401.401 0 0 0 0-.578.395.395 0 0 0-.578 0zm0 0M16.137 18.207a.375.375 0 0 0 .289-.125l1.656-1.656a.395.395 0 0 0 0-.578.401.401 0 0 0-.578 0l-1.656 1.656a.401.401 0 0 0 0 .578.381.381 0 0 0 .289.125zm0 0M16.137 20.691a.375.375 0 0 0 .289-.125l1.656-1.656a.395.395 0 0 0 0-.578.395.395 0 0 0-.578 0l-1.656 1.652a.406.406 0 0 0 0 .582.381.381 0 0 0 .289.125zm0 0"/>
</svg>
